src/assets/logos/JJ.svg

<svg width="45" height="60" viewBox="0 0 45 60" fill="none" xmlns="http://www.w3.org/2000/svg">
<path d="M26.5398 0.81818H38.6989V41.3864C38.6989 45.1364 37.8561 48.3939 36.1705 51.1591C34.5038 53.9242 32.1837 56.0549 29.2102 57.5511C26.2367 59.0473 22.7803 59.7955 18.8409 59.7955C15.3371 59.7955 12.1553 59.1799 9.29545 57.9489C6.45455 56.6989 4.20076 54.8049 2.53409 52.267C0.867424 49.7102 0.0435606 46.5 0.0625 42.6364H12.3068C12.3447 44.1705 12.6572 45.4867 13.2443 46.5852C13.8504 47.6648 14.6742 48.4981 15.7159 49.0852C16.7765 49.6534 18.0265 49.9375 19.4659 49.9375C20.9811 49.9375 22.2595 49.6155 23.3011 48.9716C24.3617 48.3087 25.1667 47.3428 25.7159 46.0739C26.2652 44.8049 26.5398 43.2424 26.5398 41.3864V0.81818Z" fill="#13AB1E"/>
<path d="M32.3523 0.81818H44.5114V41.3864C44.5114 45.1364 43.6686 48.3939 41.983 51.1591C40.3163 53.9242 37.9962 56.0549 35.0227 57.5511C32.0492 59.0473 28.5928 59.7955 24.6534 59.7955C21.1496 59.7955 17.9678 59.1799 15.108 57.9489C12.267 56.6989 10.0133 54.8049 8.34659 52.267C6.67992 49.7102 5.85606 46.5 5.875 42.6364H18.1193C18.1572 44.1705 18.4697 45.4867 19.0568 46.5852C19.6629 47.6648 20.4867 48.4981 21.5284 49.0852C22.589 49.6534 23.839 49.9375 25.2784 49.9375C26.7936 49.9375 28.072 49.6155 29.1136 48.9716C30.1742 48.3087 30.9792 47.3428 31.5284 46.0739C32.0777 44.8049 32.3523 43.2424 32.3523 41.3864V0.81818Z" fill="#AB134D"/>
</svg>

<svg width="45" height="60" fill="none" xmlns="http://www.w3.org/2000/svg"><path d="M26.54.818h12.159v40.568c0 3.75-.843 7.008-2.529 9.773-1.666 2.765-3.986 4.896-6.96 6.392-2.973 1.496-6.43 2.244-10.37 2.244-3.503 0-6.685-.615-9.545-1.846-2.84-1.25-5.094-3.144-6.76-5.682C.866 49.71.043 46.5.061 42.637h12.245c.038 1.533.35 2.85.937 3.948.606 1.08 1.43 1.913 2.472 2.5 1.06.568 2.31.852 3.75.852 1.515 0 2.793-.322 3.835-.965 1.06-.663 1.866-1.63 2.415-2.898.55-1.27.824-2.832.824-4.688V.818z" fill="#13AB1E"/><path d="M32.352.818h12.16v40.568c0 3.75-.843 7.008-2.529 9.773-1.667 2.765-3.987 4.896-6.96 6.392-2.974 1.496-6.43 2.244-10.37 2.244-3.503 0-6.685-.615-9.545-1.846-2.841-1.25-5.095-3.144-6.761-5.682-1.667-2.557-2.49-5.767-2.472-9.63h12.244c.038 1.533.35 2.85.938 3.948.606 1.08 1.43 1.913 2.471 2.5 1.061.568 2.311.852 3.75.852 1.516 0 2.794-.322 3.836-.965 1.06-.663 1.865-1.63 2.414-2.898.55-1.27.824-2.832.824-4.688V.818z" fill="#AB134D"/></svg>
